svg/aws-ec2-cloudwatch.svg

<?xml version="1.0" encoding="UTF-8"?>
<svg xmlns="http://www.w3.org/2000/svg" xmlns:xlink="http://www.w3.org/1999/xlink" width="32" height="32" viewBox="0 0 32 32">
<path fill-rule="evenodd" fill="rgb(83.137255%, 35.686275%, 2.745098%)" fill-opacity="1" d="M 25.03125 24.726562 C 24.886719 24.871094 24.648438 24.871094 24.503906 24.726562 L 21.957031 22.179688 C 22.144531 22.011719 22.320312 21.832031 22.480469 21.632812 L 25.03125 24.199219 C 25.175781 24.34375 25.175781 24.582031 25.03125 24.726562 M 15.613281 18.75 C 15.613281 16.941406 17.078125 15.476562 18.886719 15.472656 C 20.695312 15.476562 22.164062 16.941406 22.164062 18.75 C 22.160156 20.558594 20.695312 22.019531 18.886719 22.023438 C 17.082031 22.019531 15.617188 20.554688 15.613281 18.75 M 23.171875 20.441406 C 23.386719 19.902344 23.5 19.328125 23.5 18.75 C 23.496094 16.203125 21.433594 14.140625 18.886719 14.136719 C 16.347656 14.136719 14.277344 16.207031 14.277344 18.75 C 14.277344 21.289062 16.347656 23.359375 18.886719 23.359375 C 19.554688 23.359375 20.214844 23.210938 20.820312 22.929688 L 23.558594 25.667969 C 24.230469 26.296875 25.28125 26.28125 25.929688 25.628906 C 26.582031 24.980469 26.601562 23.933594 25.976562 23.257812 Z M 20.167969 16.628906 L 19.375 17.703125 C 19.007812 17.429688 18.511719 17.40625 18.117188 17.640625 C 17.792969 17.835938 17.589844 18.179688 17.570312 18.554688 C 17.554688 18.933594 17.722656 19.292969 18.027344 19.519531 L 17.234375 20.589844 C 16.707031 20.203125 16.359375 19.621094 16.265625 18.972656 C 16.164062 18.328125 16.328125 17.667969 16.722656 17.144531 C 17.53125 16.050781 19.074219 15.820312 20.167969 16.628906 M 26.507812 16.960938 C 26.507812 19.039062 25.378906 20.105469 24.429688 20.636719 L 23.78125 19.472656 C 24.703125 18.957031 25.171875 18.113281 25.171875 16.960938 C 25.171875 14.738281 23.316406 14.183594 22.519531 14.046875 C 22.171875 13.988281 21.929688 13.667969 21.96875 13.316406 C 21.851562 12.007812 21.109375 11.417969 20.414062 11.417969 C 19.980469 11.417969 19.570312 11.636719 19.289062 12.011719 C 19.144531 12.210938 18.898438 12.3125 18.65625 12.273438 C 18.414062 12.238281 18.210938 12.070312 18.125 11.839844 C 17.839844 11.035156 17.425781 10.355469 16.894531 9.828125 C 16.253906 9.183594 14.488281 7.800781 11.992188 8.855469 C 10.558594 9.460938 9.433594 11.207031 9.433594 12.828125 C 9.433594 13.011719 9.445312 13.195312 9.464844 13.371094 C 9.488281 13.5625 9.429688 13.753906 9.300781 13.894531 C 9.203125 14.003906 9.074219 14.078125 8.933594 14.105469 C 8.105469 14.324219 6.753906 14.976562 6.753906 16.933594 C 6.753906 18.429688 7.570312 19.253906 8.253906 19.679688 C 8.460938 19.8125 8.710938 19.882812 8.972656 19.886719 L 13.496094 19.890625 L 13.496094 21.226562 L 8.964844 21.21875 C 8.460938 21.21875 7.96875 21.078125 7.542969 20.808594 C 6.753906 20.3125 5.421875 19.148438 5.421875 16.933594 C 5.421875 15.050781 6.414062 13.605469 8.101562 12.972656 L 8.101562 12.828125 C 8.101562 10.675781 9.550781 8.4375 11.476562 7.628906 C 13.726562 6.679688 16.101562 7.148438 17.839844 8.886719 C 18.296875 9.34375 18.683594 9.882812 18.996094 10.492188 C 19.417969 10.230469 19.90625 10.085938 20.414062 10.085938 C 21.605469 10.085938 22.945312 10.953125 23.25 12.84375 C 24.90625 13.289062 26.507812 14.5625 26.507812 16.960938 M 29.21875 26.253906 C 29.214844 27.890625 27.890625 29.214844 26.253906 29.21875 L 5.632812 29.21875 C 3.996094 29.214844 2.671875 27.890625 2.667969 26.253906 L 2.667969 5.632812 C 2.667969 3.996094 3.996094 2.667969 5.632812 2.667969 L 26.253906 2.667969 C 27.890625 2.671875 29.214844 3.996094 29.21875 5.632812 Z M 26.253906 1.332031 L 5.632812 1.332031 C 3.257812 1.335938 1.335938 3.257812 1.332031 5.632812 L 1.332031 26.253906 C 1.332031 28.628906 3.257812 30.550781 5.632812 30.550781 L 26.253906 30.550781 C 28.625 30.550781 30.550781 28.625 30.550781 26.253906 L 30.550781 5.632812 C 30.550781 3.257812 28.628906 1.332031 26.253906 1.332031 M 26.253906 1.332031 "/>
</svg>

<svg role="img" viewBox="0 0 32 32" xmlns="http://www.w3.org/2000/svg"><path d="M25.031 24.727a.375.375 0 0 1-.527 0l-2.547-2.547q.282-.25.523-.547l2.551 2.566a.375.375 0 0 1 0 .528m-9.418-5.977a3.28 3.28 0 0 1 3.274-3.277 3.28 3.28 0 0 1 3.277 3.277 3.28 3.28 0 0 1-3.277 3.273 3.283 3.283 0 0 1-3.274-3.273m7.559 1.691a4.6 4.6 0 0 0 .328-1.691 4.62 4.62 0 0 0-4.613-4.613c-2.54 0-4.61 2.07-4.61 4.613 0 2.54 2.07 4.61 4.61 4.61.668 0 1.328-.15 1.933-.43l2.739 2.738a1.706 1.706 0 0 0 2.418-2.41Zm-3.004-3.812-.793 1.074a1.13 1.13 0 0 0-1.258-.062 1.133 1.133 0 0 0-.09 1.879l-.793 1.07a2.43 2.43 0 0 1-.968-1.617 2.4 2.4 0 0 1 .457-1.828 2.464 2.464 0 0 1 3.445-.516m6.34.332c0 2.078-1.13 3.144-2.078 3.676l-.649-1.164c.922-.516 1.39-1.36 1.39-2.512 0-2.223-1.855-2.777-2.651-2.914a.664.664 0 0 1-.551-.73c-.117-1.31-.86-1.899-1.555-1.899-.434 0-.844.219-1.125.594a.66.66 0 0 1-.633.261.67.67 0 0 1-.531-.433c-.285-.805-.7-1.485-1.23-2.012-.641-.644-2.407-2.027-4.903-.973-1.433.606-2.558 2.352-2.558 3.973q0 .277.03.543a.66.66 0 0 1-.163.524.66.66 0 0 1-.367.21c-.829.22-2.18.872-2.18 2.829 0 1.496.816 2.32 1.5 2.746.207.133.457.203.719.207l4.523.004v1.336l-4.531-.008a2.65 2.65 0 0 1-1.422-.41c-.79-.497-2.121-1.66-2.121-3.875 0-1.883.992-3.329 2.68-3.961v-.145c0-2.152 1.449-4.39 3.375-5.2 2.25-.948 4.625-.48 6.363 1.259.457.457.844.996 1.156 1.605.422-.262.91-.406 1.418-.406 1.191 0 2.531.867 2.836 2.758 1.656.445 3.258 1.719 3.258 4.117m2.71 9.293a2.97 2.97 0 0 1-2.964 2.965H5.633a2.97 2.97 0 0 1-2.965-2.965V5.633a2.966 2.966 0 0 1 2.965-2.965h20.62a2.97 2.97 0 0 1 2.966 2.965ZM26.255 1.332H5.633a4.306 4.306 0 0 0-4.301 4.3v20.622a4.3 4.3 0 0 0 4.3 4.297h20.622a4.3 4.3 0 0 0 4.297-4.297V5.633a4.3 4.3 0 0 0-4.297-4.301m0 0" fill="rgb(83.137256%, 35.686275%, 2.745098%)" fill-rule="evenodd"/></svg>
